32x32/actions/qa.svg

<svg xmlns="http://www.w3.org/2000/svg" viewBox="0 0 32 32"><path style="fill:currentColor;fill-opacity:1;stroke:none;color:#555e70" d="M3 6v14h8v6l4 4v-4h14V12h-8V6H3zm1 1h16v12H4V7zm17 6h7v12H12v-5h5v4l4-4v-7z"/></svg>

<svg xmlns="http://www.w3.org/2000/svg" viewBox="0 0 32 32">
  <defs
     id="defs3051">
    <style
       type="text/css"
       id="current-color-scheme">
      .ColorScheme-Text {
        color:#555e70;
      }
      </style>
  </defs>
  <path
     style="fill:currentColor;fill-opacity:1;stroke:none" 
     d="M 3 6 L 3 20 L 11 20 L 11 26 L 15 30 L 15 26 L 29 26 L 29 12 L 21 12 L 21 6 L 3 6 z M 4 7 L 20 7 L 20 19 L 4 19 L 4 7 z M 21 13 L 28 13 L 28 25 L 12 25 L 12 20 L 17 20 L 17 24 L 21 20 L 21 13 z "
     id="path88" 
     class="ColorScheme-Text"
     />
</svg>
